X: 1
T: Final Fantasy III Theme
Z: Pinion/Peridoc
M: 4/4
L: 1/8
Q: 1/4=150
K: Bb
z8|B,/2z3/2 =D/2z3/2 G/2z3/2 B,/2z3/2|B,/2z3/2 D/2z3/2 G/2z3/2 B,/2z3/2|B,/2z3/2 D/2z3/2 G/2z3/2 B,/2z3/2|
B,/2z3/2 D/2z3/2 G/2z3/2 B,/2z3/2|B,/2z3/2 D/2z3/2 G/2z3/2 B,/2z3/2|B,/2z3/2 D/2z3/2 G/2z3/2 B,/2z3/2|B,/2z3/2 D/2z3/2 G/2z3/2 B,/2z3/2|
B,/2z3/2 D/2z3/2 G/2z3/2 G=A|Bd B2 G/2z3/2 B,/2z3/2|B,/2z3/2 D/2z3/2 G/2z3/2 B,G|A2 C/2z3/2 D2 A,/2z3/2|
A,/2z3/2 C/2z3/2 F/2z3/2 A,A|Bd B2 G/2z3/2 B,/2z3/2|B,/2z3/2 D/2z3/2 G/2z3/2 B,G|A2 C/2z3/2 d2 A,/2z3/2|
A,/2z3/2 C/2z3/2 F/2z3/2 A,c|df d2 F/2z3/2 B,/2z3/2|B,/2z3/2 D/2z3/2 F/2z3/2 cB|c2 C/2z3/2 F/2z3/2 A,/2z3/2|
A,/2z3/2 C/2z3/2 F/2z3/2 BA|G2 B,/2z3/2 E/2z3/2 B,/2z3/2|G,/2z3/2 C/2z3/2 E/2z3/2 CA|G2 D/2z3/2 G2 B,/2z3/2|
B,/2z3/2 D/2z3/2 G2 B,A|Bd B2 G/2z3/2 B,/2z3/2|B,/2z3/2 D/2z3/2 G/2z3/2 B,G|A2 C/2z3/2 D2 A,/2z3/2|
A,/2z3/2 C/2z3/2 F/2z3/2 A,A|Bd B2 G/2z3/2 B,/2z3/2|B,/2z3/2 D/2z3/2 G/2z3/2 B,G|A2 C/2z3/2 d2 A,/2z3/2|
A,/2z3/2 C/2z3/2 F/2z3/2 A,c|df d2 F/2z3/2 B,/2z3/2|B,/2z3/2 D/2z3/2 F/2z3/2 cB|c2 C/2z3/2 F/2z3/2 A,/2z3/2|
A,/2z3/2 C/2z3/2 F/2z3/2 BA|G2 B,/2z3/2 E/2z3/2 B,/2z3/2|G,/2z3/2 C/2z3/2 E/2z3/2 CA|G2 D/2z3/2 G2 B,/2z3/2|
B,/2z3/2 D/2z3/2 G2 B,c|df d2 F/2z3/2 B,/2z3/2|B,/2z3/2 D/2z3/2 F/2z3/2 cB|c2 C/2z3/2 F/2z3/2 A,/2z3/2|
A,/2z3/2 C/2z3/2 F/2z3/2 Bc|df d2 F/2z3/2 B,/2z3/2|B,/2z3/2 D/2z3/2 F/2z3/2 cB|c2 C/2z3/2 f2 A,/2z3/2|
A,/2z3/2 C/2z3/2 F/2z3/2 A,A|Bd B2 G/2z3/2 B,/2z3/2|B,/2z3/2 D/2z3/2 G/2z3/2 B,G|A2 D/2z3/2 F/2z3/2 A,/2z3/2|
A,/2z3/2 D/2z3/2 F/2z3/2 BA|G2 B,/2z3/2 E/2z3/2 B,/2z3/2|G,/2z3/2 C/2z3/2 E/2z3/2 CA|G2 D/2z3/2 G2 B,/2z3/2|
B,/2z3/2 D/2z3/2 G2 B,/2z3/2|G,z6B,/2D/2|G/2z2z/2D/2G/2 d/2z2z/2B/2d/2|b/2z6z3/2|
z8|z6 z_D/2=E/2|A/2z2=E/2A/2_d/2 =e/2z2A/2_d/2=e/2|a/2z6z3/2|
z8|z6 zC/2_E/2|_A/2z2E/2_A/2c/2 _e/2z2c/2e/2_a/2|c'/2z6z3/2|
z8|z6 zB,/2=D/2|G/2z2z/2D/2G/2 =d/2z2z/2B/2d/2|b/2
